packages/core/src/svgs/tokens/branded/DCB.svg

<svg width="24" height="24" viewBox="0 0 24 24" fill="none" xmlns="http://www.w3.org/2000/svg">
<path d="M14.9033 5.22582C14.9033 2.47097 16.4647 2 18.1292 2V14.9485C18.1292 16.3937 18.1936 17.6582 17.484 18.7743C18.7744 18.7743 20.0646 20.2581 20.0646 22H10.7097C6.98716 22 3.93555 18.8387 3.93555 14.9485C3.93555 11.0517 7.22589 7.80648 10.9485 7.80648C12.3291 7.80648 13.8388 8.35486 14.9033 9.0968V5.22582ZM10.9485 18.7743C13.013 18.7743 14.9033 17.0968 14.9033 14.9485C14.8836 13.916 14.4645 12.9314 13.7344 12.2012C13.0042 11.4711 12.0196 11.0521 10.9872 11.0323C9.96834 11.0441 8.99534 11.4572 8.27913 12.1819C7.56293 12.9066 7.16129 13.8843 7.16137 14.9033C7.16137 17.0581 8.8904 18.7743 10.9485 18.7743Z" fill="url(#paint0_linear_364_5957)"/>
<defs>
<linearGradient id="paint0_linear_364_5957" x1="5.95169" y1="18.0714" x2="20.8247" y2="9.98827" gradientUnits="userSpaceOnUse">
<stop stop-color="#C41859"/>
<stop offset="1" stop-color="#4D0E75"/>
</linearGradient>
</defs>
</svg>

<svg xmlns="http://www.w3.org/2000/svg" width="24" height="24" fill="none" viewBox="0 0 24 24">
    <path fill="url(#DCB__a)" d="M14.903 5.226C14.903 2.47 16.465 2 18.13 2v12.949c0 1.445.065 2.71-.645 3.825 1.29 0 2.58 1.484 2.58 3.226H10.71c-3.723 0-6.774-3.161-6.774-7.052 0-3.896 3.29-7.142 7.012-7.142 1.381 0 2.89.549 3.955 1.29zm-3.955 13.548c2.065 0 3.955-1.677 3.955-3.826a3.993 3.993 0 0 0-3.916-3.916 3.87 3.87 0 0 0-3.826 3.871c0 2.155 1.73 3.871 3.787 3.871"/>
    <defs>
        <linearGradient id="DCB__a" x1="5.952" x2="20.825" y1="18.071" y2="9.988" gradientUnits="userSpaceOnUse">
            <stop stop-color="#C41859"/>
            <stop offset="1" stop-color="#4D0E75"/>
        </linearGradient>
    </defs>
</svg>
